public/assets/external-link_menu_sm.svg

<svg width="22" height="22" viewBox="0 0 22 22" fill="none" xmlns="http://www.w3.org/2000/svg">
<g clip-path="url(#clip0)">
<path fill-rule="evenodd" clip-rule="evenodd" d="M4.58333 6.1875C4.27944 6.1875 3.98799 6.30822 3.77311 6.52311C3.55822 6.73799 3.4375 7.02944 3.4375 7.33333V17.4167C3.4375 17.7206 3.55822 18.012 3.77311 18.2269C3.98799 18.4418 4.27944 18.5625 4.58333 18.5625H14.6667C14.9706 18.5625 15.262 18.4418 15.4769 18.2269C15.6918 18.012 15.8125 17.7206 15.8125 17.4167V11.9167C15.8125 11.537 16.1203 11.2292 16.5 11.2292C16.8797 11.2292 17.1875 11.537 17.1875 11.9167V17.4167C17.1875 18.0852 16.9219 18.7264 16.4492 19.1992C15.9764 19.6719 15.3352 19.9375 14.6667 19.9375H4.58333C3.91477 19.9375 3.27358 19.6719 2.80083 19.1992C2.32809 18.7264 2.0625 18.0852 2.0625 17.4167V7.33333C2.0625 6.66477 2.32809 6.02358 2.80083 5.55083C3.27358 5.07809 3.91477 4.8125 4.58333 4.8125H10.0833C10.463 4.8125 10.7708 5.1203 10.7708 5.5C10.7708 5.8797 10.463 6.1875 10.0833 6.1875H4.58333Z" fill="#65CBA0"/>
<path fill-rule="evenodd" clip-rule="evenodd" d="M13.0625 2.75C13.0625 2.3703 13.3703 2.0625 13.75 2.0625H19.25C19.6297 2.0625 19.9375 2.3703 19.9375 2.75V8.25C19.9375 8.6297 19.6297 8.9375 19.25 8.9375C18.8703 8.9375 18.5625 8.6297 18.5625 8.25V3.4375H13.75C13.3703 3.4375 13.0625 3.1297 13.0625 2.75Z" fill="#65CBA0"/>
<path fill-rule="evenodd" clip-rule="evenodd" d="M19.7362 2.26386C20.0047 2.53235 20.0047 2.96765 19.7362 3.23614L9.65288 13.3195C9.3844 13.588 8.9491 13.588 8.68061 13.3195C8.41213 13.051 8.41213 12.6157 8.68061 12.3472L18.7639 2.26386C19.0324 1.99538 19.4677 1.99538 19.7362 2.26386Z" fill="#65CBA0"/>
</g>
<defs>
<clipPath id="clip0">
<rect width="22" height="22" fill="white"/>
</clipPath>
</defs>
</svg>

<svg width="22" height="22" fill="none" xmlns="http://www.w3.org/2000/svg"><g clip-path="url(#clip0)" fill-rule="evenodd" clip-rule="evenodd" fill="#65CBA0"><path d="M4.58 6.19a1.15 1.15 0 00-1.14 1.14v10.09a1.15 1.15 0 001.14 1.14h10.09a1.15 1.15 0 001.14-1.14v-5.5a.69.69 0 111.38 0v5.5a2.52 2.52 0 01-2.52 2.52H4.58a2.52 2.52 0 01-2.52-2.52V7.33a2.52 2.52 0 012.52-2.52h5.5a.69.69 0 110 1.38h-5.5zM13.06 2.75c0-.38.31-.69.69-.69h5.5c.38 0 .69.31.69.69v5.5a.69.69 0 11-1.38 0V3.44h-4.81a.69.69 0 01-.69-.69z"/><path d="M19.74 2.26c.26.27.26.7 0 .98L9.65 13.32a.69.69 0 11-.97-.97L18.76 2.26c.27-.26.7-.26.98 0z"/></g><defs><clipPath id="clip0"><path fill="#fff" d="M0 0h22v22H0z"/></clipPath></defs></svg>
